src/epub/images/titlepage.svg

<?xml version="1.0" encoding="utf-8"?>
<svg xmlns="http://www.w3.org/2000/svg" xmlns:svg="http://www.w3.org/2000/svg" version="1.1" viewBox="0 0 1400 340">
	<title>The titlepage for the Standard Ebooks edition of The Jungle Book, by Rudyard Kipling</title>
	<g>
		<path d="m 211.80116,68.245613 18.33918,0 0,61.754387 17.59065,0 0,-61.754387 18.33918,0 0,-15.438597 -54.26901,0 0,15.438597 z"/>
		<path d="m 294.99561,99.029239 24.88889,0 0,30.970761 17.59064,0 0,-77.192984 -17.59064,0 0,30.783626 -24.88889,0 0,-30.783626 -17.59065,0 0,77.192984 17.59065,0 0,-30.970761 z"/>
		<path d="m 397.84064,52.807016 -44.16374,0 0,77.192984 44.16374,0 0,-15.4386 -26.5731,0 0,-15.532161 25.45029,0 0,-15.438597 -25.45029,0 0,-15.345029 26.5731,0 0,-15.438597 z"/>
		<path d="m 477.12866,52.807016 -17.59065,0 0,50.900584 c 0,7.76608 -3.83626,10.8538 -8.88889,10.8538 -4.49123,0 -10.01169,-5.23976 -10.01169,-5.23976 l -5.61404,14.69006 c 0,0 7.01755,7.39181 18.05848,7.39181 15.4386,0 24.04679,-8.04678 24.04679,-23.20468 l 0,-55.391814 z"/>
		<path d="m 551.71928,52.807016 -17.59064,0 0,44.63158 c 0,12.912284 -3.92982,16.654974 -12.53801,16.654974 -8.60819,0 -12.53801,-3.74269 -12.53801,-16.654974 l 0,-44.63158 -17.59065,0 0,49.777774 c 0,19.08772 10.47954,28.81872 30.12866,28.81872 19.64912,0 30.12865,-9.731 30.12865,-28.81872 l 0,-49.777774 z"/>
		<path d="m 584.61549,82.093566 0.18713,0 L 615.49268,130 l 17.59064,0 0,-77.192984 -17.59064,0 0,47.906434 -0.18713,0 -30.69006,-47.906434 -17.59065,0 0,77.192984 17.59065,0 0,-47.906434 z"/>
		<path d="m 719.12866,86.771929 -35.64913,0 0,13.567251 17.77778,0 c 0,9.45029 -8.32748,14.87719 -16.74854,14.87719 -10.8538,0 -19.64912,-10.66666 -19.64912,-23.766078 0,-13.380117 8.79532,-24.140352 19.64912,-24.140352 6.83041,0 12.72515,2.713451 17.21638,9.918129 L 713.23392,64.59649 c -6.73684,-8.140351 -16.18713,-13.192983 -29.75439,-13.192983 -21.7076,0 -37.61403,17.871346 -37.61403,40.046785 0,22.081868 16.8421,39.953218 37.61403,39.953218 15.1579,0 31.4386,-8.32749 35.64913,-27.88304 l 0,-16.748541 z"/>
		<path d="m 749.40354,52.807016 -17.59064,0 0,77.192984 44.16374,0 0,-15.4386 -26.5731,0 0,-61.754384 z"/>
		<path d="m 833.79097,52.807016 -44.16374,0 0,77.192984 44.16374,0 0,-15.4386 -26.5731,0 0,-15.532161 25.4503,0 0,-15.438597 -25.4503,0 0,-15.345029 26.5731,0 0,-15.438597 z"/>
		<path d="m 879.48831,52.807016 0,77.192984 29.28655,0 c 16,0 25.26316,-8.79532 25.26316,-21.52047 0,-12.444443 -6.83041,-17.777776 -16.46783,-19.461987 6.5497,-3.368421 9.63742,-9.450292 9.63742,-16.561404 0,-14.690058 -10.47953,-19.649123 -23.76608,-19.649123 l -23.95322,0 z m 17.59065,30.222223 0,-16.654971 1.40351,0 c 7.67251,0 11.6959,2.339181 11.6959,7.859649 0,6.456141 -4.11696,8.795322 -11.6959,8.795322 l -1.40351,0 z m 0,33.403511 0,-18.245616 5.52047,0 c 8.32748,0 12.91228,2.526316 12.91228,9.637426 0,6.08187 -4.5848,8.60819 -12.91228,8.60819 l -5.52047,0 z"/>
		<path d="m 943.34359,91.356724 c 0,22.549706 16.09356,40.046786 38.92397,40.046786 22.17544,0 38.83044,-17.49708 38.83044,-40.046786 0,-22.549708 -17.4035,-39.953217 -38.83044,-39.953217 -21.23976,0 -38.92397,17.403509 -38.92397,39.953217 z m 18.99415,0 c 0,-11.508772 6.36257,-23.017544 19.92982,-23.017544 13.66082,0 19.83624,11.508772 19.83624,23.017544 0,11.508776 -5.80115,23.017546 -19.83624,23.017546 -14.40935,0 -19.92982,-11.50877 -19.92982,-23.017546 z"/>
		<path d="m 1030.3977,91.356724 c 0,22.549706 16.0935,40.046786 38.9239,40.046786 22.1755,0 38.8305,-17.49708 38.8305,-40.046786 0,-22.549708 -17.4036,-39.953217 -38.8305,-39.953217 -21.2397,0 -38.9239,17.403509 -38.9239,39.953217 z m 18.9941,0 c 0,-11.508772 6.3626,-23.017544 19.9298,-23.017544 13.6609,0 19.8363,11.508772 19.8363,23.017544 0,11.508776 -5.8012,23.017546 -19.8363,23.017546 -14.4093,0 -19.9298,-11.50877 -19.9298,-23.017546 z"/>
		<path d="m 1191.1827,130 -35.9298,-40.608188 31.0643,-36.584796 -21.3333,0 -26.4795,31.532164 0,-31.532164 -17.5907,0 0,77.192984 17.5907,0 0,-32.748539 28.4444,32.748539 24.2339,0 z"/>
	</g>
	<g>
		<path d="m 333.88981,232.10526 0,57.89474 13.19298,0 0,-22.87719 L 364.767,290 l 16.77193,0 -19.92983,-23.92982 c 7.08772,-2.24562 11.85965,-8.07018 11.85965,-16.77193 0,-11.36842 -8.14035,-17.19299 -18.87719,-17.19299 l -20.70175,0 z m 13.19298,25.68421 0,-15.15789 1.54386,0 c 4.98245,0 10.94737,0.35088 10.94737,7.57895 0,7.22807 -5.96492,7.57894 -10.94737,7.57894 l -1.54386,0 z"/>
		<path d="m 433.68257,232.10526 -13.19299,0 0,33.47369 c 0,9.68421 -2.94736,12.49123 -9.4035,12.49123 -6.45615,0 -9.40351,-2.80702 -9.40351,-12.49123 l 0,-33.47369 -13.19299,0 0,37.33334 c 0,14.31579 7.85965,21.61403 22.5965,21.61403 14.73684,0 22.59649,-7.29824 22.59649,-21.61403 l 0,-37.33334 z"/>
		<path d="m 446.41173,232.10526 0,57.89474 16.77193,0 c 15.92983,0 29.19298,-12.07018 29.19298,-28.98246 0,-16.8421 -13.33333,-28.91228 -29.19298,-28.91228 l -16.77193,0 z m 13.19298,46.10527 0,-34.31579 2.03509,0 c 9.82456,0 16.49123,7.50877 16.49123,17.19298 -0.0702,9.68421 -6.73684,17.12281 -16.49123,17.12281 l -2.03509,0 z"/>
		<path d="m 490.60032,232.10526 21.33334,31.92983 0,25.96491 13.19298,0 0,-25.96491 21.33333,-31.92983 -15.85965,0 -12.07017,18.52632 -12.07018,-18.52632 -15.85965,0 z"/>
		<path d="m 576.68696,232.10526 -12.21053,0 L 541.10801,290 l 14.17544,0 4.2807,-11.57895 22.03509,0 4.2807,11.57895 14.17544,0 -23.36842,-57.89474 z m 0.42105,34.73685 -13.05263,0 6.45614,-16.84211 0.14035,0 6.45614,16.84211 z"/>
		<path d="m 607.24506,232.10526 0,57.89474 13.19298,0 0,-22.87719 17.68421,22.87719 16.77193,0 -19.92982,-23.92982 c 7.08772,-2.24562 11.85965,-8.07018 11.85965,-16.77193 0,-11.36842 -8.14035,-17.19299 -18.87719,-17.19299 l -20.70176,0 z m 13.19298,25.68421 0,-15.15789 1.54386,0 c 4.98246,0 10.94737,0.35088 10.94737,7.57895 0,7.22807 -5.96491,7.57894 -10.94737,7.57894 l -1.54386,0 z"/>
		<path d="m 662.54661,232.10526 0,57.89474 16.77192,0 c 15.92983,0 29.19299,-12.07018 29.19299,-28.98246 0,-16.8421 -13.33334,-28.91228 -29.19299,-28.91228 l -16.77192,0 z m 13.19298,46.10527 0,-34.31579 2.03509,0 c 9.82456,0 16.49122,7.50877 16.49122,17.19298 -0.0702,9.68421 -6.73684,17.12281 -16.49122,17.12281 l -2.03509,0 z"/>
		<path d="m 796.24616,290 -26.94737,-30.45614 23.29825,-27.4386 -16,0 -19.85965,23.64913 0,-23.64913 -13.19298,0 0,57.89474 13.19298,0 0,-24.5614 21.33333,24.5614 18.17544,0 z"/>
		<path d="m 816.97314,232.10526 -13.19298,0 0,57.89474 13.19298,0 0,-57.89474 z"/>
		<path d="m 830.43586,232.10526 0,57.89474 13.19298,0 0,-21.47368 7.92982,0 c 11.29825,0 19.78948,-6.66667 19.78948,-18.5965 0,-11.99999 -8.49123,-17.82456 -19.78948,-17.82456 l -21.1228,0 z M 843.62884,258 l 0,-15.36842 3.7193,0 c 5.19298,0 10.10526,1.75439 10.10526,7.7193 0,5.89473 -4.91228,7.64912 -10.10526,7.64912 l -3.7193,0 z"/>
		<path d="m 895.36678,232.10526 -13.19298,0 0,57.89474 33.12281,0 0,-11.57895 -19.92983,0 0,-46.31579 z"/>
		<path d="m 939.9775,232.10526 -13.19298,0 0,57.89474 13.19298,0 0,-57.89474 z"/>
		<path d="m 966.6332,254.07018 0.14035,0 L 989.7911,290 l 13.193,0 0,-57.89474 -13.193,0 0,35.92983 -0.14035,0 -23.01755,-35.92983 -13.19298,0 0,57.89474 13.19298,0 0,-35.92982 z"/>
		<path d="m 1068.7681,257.57895 -26.7369,0 0,10.17544 13.3334,0 c 0,7.08772 -6.2456,11.15789 -12.5614,11.15789 -8.1404,0 -14.7369,-8 -14.7369,-17.82456 0,-10.03509 6.5965,-18.10526 14.7369,-18.10526 5.1228,0 9.5438,2.03508 12.9123,7.43859 l 8.6315,-9.47368 c -5.0526,-6.10526 -12.1403,-9.89474 -22.3158,-9.89474 -16.2807,0 -28.2105,13.40351 -28.2105,30.03509 0,16.5614 12.6316,29.96491 28.2105,29.96491 11.3685,0 23.579,-6.24561 26.7369,-20.91228 l 0,-12.5614 z"/>
	</g>
</svg>

<?xml version="1.0" encoding="utf-8"?>
<svg xmlns="http://www.w3.org/2000/svg" xmlns:svg="http://www.w3.org/2000/svg" version="1.1" viewBox="0 0 1400 340">
	<title>The titlepage for the Standard Ebooks edition of The Jungle Book, by Rudyard Kipling</title>
	<g aria-label="THE JUNGLE BOOK">
		<path d="m 211.80116,68.245613 h 18.33918 V 130 h 17.59065 V 68.245613 h 18.33918 V 52.807016 h -54.26901 z"/>
		<path d="M 294.99561,99.029239 H 319.8845 V 130 h 17.59064 V 52.807016 H 319.8845 V 83.590642 H 294.99561 V 52.807016 H 277.40496 V 130 h 17.59065 z"/>
		<path d="M 397.84064,52.807016 H 353.6769 V 130 h 44.16374 v -15.4386 h -26.5731 V 99.029239 h 25.45029 V 83.590642 H 371.26754 V 68.245613 h 26.5731 z"/>
		<path d="M 477.12866,52.807016 H 459.53801 V 103.7076 c 0,7.76608 -3.83626,10.8538 -8.88889,10.8538 -4.49123,0 -10.01169,-5.23976 -10.01169,-5.23976 l -5.61404,14.69006 c 0,0 7.01755,7.39181 18.05848,7.39181 15.4386,0 24.04679,-8.04678 24.04679,-23.20468 z"/>
		<path d="m 551.71928,52.807016 h -17.59064 v 44.63158 c 0,12.912284 -3.92982,16.654974 -12.53801,16.654974 -8.60819,0 -12.53801,-3.74269 -12.53801,-16.654974 v -44.63158 h -17.59065 v 49.777774 c 0,19.08772 10.47954,28.81872 30.12866,28.81872 19.64912,0 30.12865,-9.731 30.12865,-28.81872 z"/>
		<path d="m 584.61549,82.093566 h 0.18713 L 615.49268,130 h 17.59064 V 52.807016 h -17.59064 v 47.906434 h -0.18713 L 584.61549,52.807016 H 567.02484 V 130 h 17.59065 z"/>
		<path d="m 719.12866,86.771929 h -35.64913 v 13.567251 h 17.77778 c 0,9.45029 -8.32748,14.87719 -16.74854,14.87719 -10.8538,0 -19.64912,-10.66666 -19.64912,-23.766078 0,-13.380117 8.79532,-24.140352 19.64912,-24.140352 6.83041,0 12.72515,2.713451 17.21638,9.918129 L 713.23392,64.59649 c -6.73684,-8.140351 -16.18713,-13.192983 -29.75439,-13.192983 -21.7076,0 -37.61403,17.871346 -37.61403,40.046785 0,22.081868 16.8421,39.953218 37.61403,39.953218 15.1579,0 31.4386,-8.32749 35.64913,-27.88304 z"/>
		<path d="M 749.40354,52.807016 H 731.8129 V 130 h 44.16374 v -15.4386 h -26.5731 z"/>
		<path d="M 833.79097,52.807016 H 789.62723 V 130 h 44.16374 v -15.4386 h -26.5731 V 99.029239 h 25.4503 V 83.590642 h -25.4503 V 68.245613 h 26.5731 z"/>
		<path d="M 879.48831,52.807016 V 130 h 29.28655 c 16,0 25.26316,-8.79532 25.26316,-21.52047 0,-12.444443 -6.83041,-17.777776 -16.46783,-19.461987 6.5497,-3.368421 9.63742,-9.450292 9.63742,-16.561404 0,-14.690058 -10.47953,-19.649123 -23.76608,-19.649123 z m 17.59065,30.222223 V 66.374268 h 1.40351 c 7.67251,0 11.6959,2.339181 11.6959,7.859649 0,6.456141 -4.11696,8.795322 -11.6959,8.795322 z m 0,33.403511 V 98.187134 h 5.52047 c 8.32748,0 12.91228,2.526316 12.91228,9.637426 0,6.08187 -4.5848,8.60819 -12.91228,8.60819 z"/>
		<path d="m 943.34359,91.356724 c 0,22.549706 16.09356,40.046786 38.92397,40.046786 22.17544,0 38.83044,-17.49708 38.83044,-40.046786 0,-22.549708 -17.4035,-39.953217 -38.83044,-39.953217 -21.23976,0 -38.92397,17.403509 -38.92397,39.953217 z m 18.99415,0 c 0,-11.508772 6.36257,-23.017544 19.92982,-23.017544 13.66082,0 19.83624,11.508772 19.83624,23.017544 0,11.508776 -5.80115,23.017546 -19.83624,23.017546 -14.40935,0 -19.92982,-11.50877 -19.92982,-23.017546 z"/>
		<path d="m 1030.3977,91.356724 c 0,22.549706 16.0935,40.046786 38.9239,40.046786 22.1755,0 38.8305,-17.49708 38.8305,-40.046786 0,-22.549708 -17.4036,-39.953217 -38.8305,-39.953217 -21.2397,0 -38.9239,17.403509 -38.9239,39.953217 z m 18.9941,0 c 0,-11.508772 6.3626,-23.017544 19.9298,-23.017544 13.6609,0 19.8363,11.508772 19.8363,23.017544 0,11.508776 -5.8012,23.017546 -19.8363,23.017546 -14.4093,0 -19.9298,-11.50877 -19.9298,-23.017546 z"/>
		<path d="m 1191.1827,130 -35.9298,-40.608188 31.0643,-36.584796 h -21.3333 L 1138.5044,84.33918 V 52.807016 h -17.5907 V 130 h 17.5907 V 97.251461 L 1166.9488,130 Z"/>
	</g>
	<g aria-label="RUDYARD KIPLING">
		<path d="M 333.88981,232.10526 V 290 h 13.19298 V 267.12281 L 364.767,290 h 16.77193 L 361.6091,266.07018 c 7.08772,-2.24562 11.85965,-8.07018 11.85965,-16.77193 0,-11.36842 -8.14035,-17.19299 -18.87719,-17.19299 z m 13.19298,25.68421 v -15.15789 h 1.54386 c 4.98245,0 10.94737,0.35088 10.94737,7.57895 0,7.22807 -5.96492,7.57894 -10.94737,7.57894 z"/>
		<path d="m 433.68257,232.10526 h -13.19299 v 33.47369 c 0,9.68421 -2.94736,12.49123 -9.4035,12.49123 -6.45615,0 -9.40351,-2.80702 -9.40351,-12.49123 v -33.47369 h -13.19299 v 37.33334 c 0,14.31579 7.85965,21.61403 22.5965,21.61403 14.73684,0 22.59649,-7.29824 22.59649,-21.61403 z"/>
		<path d="M 446.41173,232.10526 V 290 h 16.77193 c 15.92983,0 29.19298,-12.07018 29.19298,-28.98246 0,-16.8421 -13.33333,-28.91228 -29.19298,-28.91228 z m 13.19298,46.10527 v -34.31579 h 2.03509 c 9.82456,0 16.49123,7.50877 16.49123,17.19298 -0.0702,9.68421 -6.73684,17.12281 -16.49123,17.12281 z"/>
		<path d="m 490.60032,232.10526 21.33334,31.92983 V 290 h 13.19298 v -25.96491 l 21.33333,-31.92983 h -15.85965 l -12.07017,18.52632 -12.07018,-18.52632 z"/>
		<path d="M 576.68696,232.10526 H 564.47643 L 541.10801,290 h 14.17544 l 4.2807,-11.57895 h 22.03509 L 585.87994,290 h 14.17544 z m 0.42105,34.73685 H 564.05538 L 570.51152,250 h 0.14035 z"/>
		<path d="M 607.24506,232.10526 V 290 h 13.19298 V 267.12281 L 638.12225,290 h 16.77193 l -19.92982,-23.92982 c 7.08772,-2.24562 11.85965,-8.07018 11.85965,-16.77193 0,-11.36842 -8.14035,-17.19299 -18.87719,-17.19299 z m 13.19298,25.68421 v -15.15789 h 1.54386 c 4.98246,0 10.94737,0.35088 10.94737,7.57895 0,7.22807 -5.96491,7.57894 -10.94737,7.57894 z"/>
		<path d="M 662.54661,232.10526 V 290 h 16.77192 c 15.92983,0 29.19299,-12.07018 29.19299,-28.98246 0,-16.8421 -13.33334,-28.91228 -29.19299,-28.91228 z m 13.19298,46.10527 v -34.31579 h 2.03509 c 9.82456,0 16.49122,7.50877 16.49122,17.19298 -0.0702,9.68421 -6.73684,17.12281 -16.49122,17.12281 z"/>
		<path d="m 796.24616,290 -26.94737,-30.45614 23.29825,-27.4386 h -16 l -19.85965,23.64913 V 232.10526 H 743.54441 V 290 h 13.19298 V 265.4386 L 778.07072,290 Z"/>
		<path d="M 816.97314,232.10526 H 803.78016 V 290 h 13.19298 z"/>
		<path d="M 830.43586,232.10526 V 290 h 13.19298 v -21.47368 h 7.92982 c 11.29825,0 19.78948,-6.66667 19.78948,-18.5965 0,-11.99999 -8.49123,-17.82456 -19.78948,-17.82456 z M 843.62884,258 v -15.36842 h 3.7193 c 5.19298,0 10.10526,1.75439 10.10526,7.7193 0,5.89473 -4.91228,7.64912 -10.10526,7.64912 z"/>
		<path d="M 895.36678,232.10526 H 882.1738 V 290 h 33.12281 v -11.57895 h -19.92983 z"/>
		<path d="M 939.9775,232.10526 H 926.78452 V 290 h 13.19298 z"/>
		<path d="m 966.6332,254.07018 h 0.14035 L 989.7911,290 h 13.193 v -57.89474 h -13.193 v 35.92983 h -0.14035 L 966.6332,232.10526 H 953.44022 V 290 h 13.19298 z"/>
		<path d="m 1068.7681,257.57895 h -26.7369 v 10.17544 h 13.3334 c 0,7.08772 -6.2456,11.15789 -12.5614,11.15789 -8.1404,0 -14.7369,-8 -14.7369,-17.82456 0,-10.03509 6.5965,-18.10526 14.7369,-18.10526 5.1228,0 9.5438,2.03508 12.9123,7.43859 l 8.6315,-9.47368 c -5.0526,-6.10526 -12.1403,-9.89474 -22.3158,-9.89474 -16.2807,0 -28.2105,13.40351 -28.2105,30.03509 0,16.5614 12.6316,29.96491 28.2105,29.96491 11.3685,0 23.579,-6.24561 26.7369,-20.91228 z"/>
	</g>
</svg>
